assets/img/braze_icons/credit-card-up.svg

<svg fill="none" height="24" viewBox="0 0 24 24" width="24" xmlns="http://www.w3.org/2000/svg"><g fill="#801ed7"><path d="m19.7071 14.2929c-.1875-.1875-.4419-.2929-.7071-.2929s-.5196.1054-.7071.2929l-3 3c-.3905.3905-.3905 1.0237 0 1.4142s1.0237.3905 1.4142 0l1.2929-1.2929v3.5858c0 .5523.4477 1 1 1s1-.4477 1-1v-3.5858l1.2929 1.2929c.3905.3905 1.0237.3905 1.4142 0s.3905-1.0237 0-1.4142z"/><path d="m18.8385 4h-13.67704c-.52711-.00002-.98193-.00003-1.35648.03057-.39535.0323-.78857.10362-1.16695.29641-.56448.28762-1.02343.74657-1.31105 1.31105-.19279.37838-.26411.7716-.29641 1.16695-.030598.37454-.030585.8293-.03057 1.3564 0 .46314.37545.83862.83859.83862h20.32281c.4632 0 .8386-.37544.8386-.83856 0-.52714 0-.9819-.0306-1.35646-.0323-.39535-.1036-.78857-.2964-1.16695-.2876-.56448-.7465-1.02342-1.311-1.31104-.3784-.1928-.7716-.26411-1.167-.29642-.3745-.0306-.8293-.03058-1.3565-.03057z"/><path d="m1.54601 11.109c.21391-.109.49394-.109 1.05399-.109h18.8c.5601 0 .8401 0 1.054.109.1882.0959.3411.2488.437.437.109.2139.109.494.109 1.054v.226c0 .6058 0 .9087-.1198 1.049-.1039.1217-.2599.1863-.4194.1737-.1839-.0145-.3981-.2286-.8265-.657l-.513-.513c-.5626-.5626-1.3257-.8787-2.1213-.8787-.7957 0-1.5587.3161-2.1213.8787l-3 3c-.6871.687-.9712 1.6244-.8524 2.5185.1032.7776.1549 1.1664.1066 1.2877-.0578.1451-.0839.1749-.2201.2513-.1139.0638-.3892.0638-.9399.0638h-6.81161c-.52705 0-.9818 0-1.35631-.0306-.39535-.0323-.78857-.1036-1.16695-.2964-.56448-.2876-1.02343-.7465-1.31105-1.311-.19279-.3784-.26411-.7716-.29641-1.167-.030598-.3745-.030585-.8293-.03057-1.3564v-3.2386c0-.5601 0-.8401.10899-1.054.09588-.1882.24886-.3411.43702-.437z"/></g></svg>

<svg width="24" height="24" viewBox="0 0 24 24" fill="none" xmlns="http://www.w3.org/2000/svg">
<path d="M19.7071 14.2929C19.5196 14.1054 19.2652 14 19 14C18.7348 14 18.4804 14.1054 18.2929 14.2929L15.2929 17.2929C14.9024 17.6834 14.9024 18.3166 15.2929 18.7071C15.6834 19.0976 16.3166 19.0976 16.7071 18.7071L18 17.4142L18 21C18 21.5523 18.4477 22 19 22C19.5523 22 20 21.5523 20 21V17.4142L21.2929 18.7071C21.6834 19.0976 22.3166 19.0976 22.7071 18.7071C23.0976 18.3166 23.0976 17.6834 22.7071 17.2929L19.7071 14.2929Z" fill="#801ED7"/>
<path d="M18.8385 4L5.16146 4C4.63435 3.99998 4.17953 3.99997 3.80498 4.03057C3.40963 4.06287 3.01641 4.13419 2.63803 4.32698C2.07355 4.6146 1.6146 5.07355 1.32698 5.63803C1.13419 6.01641 1.06287 6.40963 1.03057 6.80498C0.999972 7.17952 0.999985 7.63428 1 8.16138C1 8.62452 1.37545 9 1.83859 9H22.1614C22.6246 9 23 8.62456 23 8.16144C23 7.6343 23 7.17954 22.9694 6.80498C22.9371 6.40963 22.8658 6.01641 22.673 5.63803C22.3854 5.07355 21.9265 4.61461 21.362 4.32699C20.9836 4.13419 20.5904 4.06288 20.195 4.03057C19.8205 3.99997 19.3657 3.99999 18.8385 4Z" fill="#801ED7"/>
<path d="M1.54601 11.109C1.75992 11 2.03995 11 2.6 11H21.4C21.9601 11 22.2401 11 22.454 11.109C22.6422 11.2049 22.7951 11.3578 22.891 11.546C23 11.7599 23 12.04 23 12.6V12.826C23 13.4318 23 13.7347 22.8802 13.875C22.7763 13.9967 22.6203 14.0613 22.4608 14.0487C22.2769 14.0342 22.0627 13.8201 21.6343 13.3917L21.1213 12.8787C20.5587 12.3161 19.7956 12 19 12C18.2043 12 17.4413 12.3161 16.8787 12.8787L13.8787 15.8787C13.1916 16.5657 12.9075 17.5031 13.0263 18.3972C13.1295 19.1748 13.1812 19.5636 13.1329 19.6849C13.0751 19.83 13.049 19.8598 12.9128 19.9362C12.7989 20 12.5236 20 11.9729 20L5.16129 20C4.63424 20 4.17949 20 3.80498 19.9694C3.40963 19.9371 3.01641 19.8658 2.63803 19.673C2.07355 19.3854 1.6146 18.9265 1.32698 18.362C1.13419 17.9836 1.06287 17.5904 1.03057 17.195C0.999972 16.8205 0.999985 16.3657 1 15.8386V12.6C1 12.0399 1 11.7599 1.10899 11.546C1.20487 11.3578 1.35785 11.2049 1.54601 11.109Z" fill="#801ED7"/>
</svg>
